X:1
T:Fugue Transcription
T:Fugue in A minor, B. 144
T:Frédéric Chopin
C:Chopin
%%score { 1 | 2 }
L:1/8
M:2/2
K:C
V:1 treble nm="Piano" snm="Pno."
V:2 bass 
V:1
 z | z8 | z8 | z8 | z8 | z8 | z4 z2 z (B, | E3 E ^D2) z2 | (^FGAc BG E2) | (B,CDF EC A,2) | %10
 (D2 CB, B,ECE) | (F2 E^D DGEG) | (^CA=DF) (DBE^G) | (EcFA dAGF) | (EFGc) (DEFB) | %15
 (EDCF B,2) z (E | A3 A ^G2) z2 | (Bcdf ec A2) | (^FGAc BG E2) | (A2 G^F FBGB) | (c2 B^A AdBd) | %21
 (^GeAc BA^F) z | z (G c2- cA^FB) | (T^D4- DEGG,) | (TG,4- G,A,CF) | (A,B,DG) (B,CEA) | %26
 (EF D2) (FG E2) | (GA ^F2- (F)dBe) | (EcAd) (DBGc) | (^C^AB) z z2 z (B, | E3 E ^D2) z2 | %31
 (^FGAc B^G E) z | z (c f2- fdBe) | (T^G4- GAcC) | (TB4- BceE) | (efg_b af d2- | d_ef_a ge c2) | %37
 (A_B_eG- GAdF) | (EGA^c FcEc | d) (F _B2- BGEA) | (T^C4- CDFA,) | (T^G,4- G,A,CF) | %42
 (B,DE^G GEAA,) | (DFGB BG^cE) | (A3 A _B2) z2 | (_B3 B =B2) z2 | z (c ^F2- F_BdG- | %47
 G)(_e G2- Gdf^G) | (B^cdf e=c G2) | (T^F4- FAB^f | ^geBA ^G2) z2 | z8 | z2 z (B, E3 E | %53
 ^D2) z2 (^FGAc | BG E2) (B,CDF) | (CEFc) (DF^Gd) | (E^GAe) (FAdf) | Te8- | e8- | e4 (dAd^G) | %60
 (c^GcA) (BFAa) | z (E c2- cAFd- | d)(D B2- B^GEc- | c)(C A2- AFD^G | BG^C_B AFDd | %65
 ^cA^D=c B^GEe) | (^d3 d e2) z2 | (fedB cea) z | z (B, A2- A)(B,A^G | !fermata!A8) |] %70
V:2
"^Andante" (E, | A,3 A, ^G,2) z2 | (B,CDF EC A,2) | (^F,G,A,C B,G, E,2) | (A,2 G,^F, F,B,G,B,) | %5
 (C2 B,^A, A,DB,D) | (^G,EA,C B,A,^F,) z | z (G, C2- CA,^F,B,) | (T^D,4- D,E,G,G,,) | %9
 (T^G,,4- G,,A,,C,F,) | (B,,D,E,^G, G,E,A,C,) | (D,F,G,B, B,G,CE,) | (A,F,_B,A,) (=B,^G,CB,) | %13
 (CA,DC B,) z z (B, | CA, E,2) (B,G, D,2) | (C,D,E,A,- A,^G, D2- | D)(C F2- F)(DB,E) | %17
 (T^G,4- G,A,CE,) | (T^D,4- D,E,G,C) | (^F,A,B,^D DB,EB,) | (A,CD^F FDGB,) | (ECFE ^D) z z (B,, | %22
 E,3 E, ^D,2) z2 | (^F,G,A,C B,G, E,2) | (B,,C,D,F, E,C, A,,2) | (F,D, B,,2) (G,E, C,2-) | %26
 (C,D,F,B,) (D,E,G,C) | (E,^F,A,D) (A,B, ^G,2- | G,A, ^F,2- F,=G, E,2- | E,^F,^D,A, ^G,=G, F,) z | %30
 z (G, C2- CA,^F,B,) | (T^D,4- D,E, ^G,) (E, | A,3 A, ^G,2) z2 | (B,CDF EC A,2) | %34
[K:treble] (DEFA GE C2) |[K:bass] (T^C4- CDFF,) | (TB,4- B,C_E_E,) | (F,G,C_E) (_E,F,_B,D) | %38
 (G,2 F,E, A,A,, G,) (A,, | D,3 D, ^C,2) z2 | (E,F,G,_B, A,F, D,2) | (B,,C,D,F, E,C, A,,2) | %42
 (D,2 C,B,, B,,E,C,E,) | (F,2 E,^D, D,G,E,^C- | C)(F, D2- D_B,G,_E- | E)(G, (_E2 ^D)B,^G,=E) | %46
 (A,3 A, _B,2) z2 | (_B,3 B, =B,2) z2 | (T^G,,4- G,,A,,E,E | DA, D,2) (T^D,4 | E,4- E,2) z (E, | %51
 A,3 A, ^G,2) z2 | (B,CDF EC A,2) | (^F,G,A,C T^D,4- | D,E,G,G,, T^G,,4) | %55
 (E,C, A,,2) (F,D, B,,2) | (^G,E, C,2 D,2) z (D, | A,3 A, ^G,3) (G, | G,A,_B,D ^CB, G,2) | %59
 (^CA,^F,A, =F,A,F,B,) | (E,CE,C D,A,CF,) | TE,8- | E,8- | E,8- | E,8- | E,8 | (A,3 A, ^G,2) z2 | %67
 (B,CDF ECA,)(C | ^D,3) (D, E,3) (E, | !fermata!A,,8) |] %70

